X:1
T:Un doux nenny
T:Geert van Turnhout
T:Source : La fleur des chansons à 3---Louvain---P.Phalèse---1574. Editor : André Vierendeels (06/09/18) Notes : Original clefs : G2, C1, C3 Original note values have been halved Editorial accidentals above the staff
T:Un doux nenny
T:©
T:©
T:©
T:©
T:©
T:©
C:Geert van Turnhout
Z:©
%%score [ 1 2 3 ]
L:1/8
Q:1/4=120
M:2/2
K:C
V:1 treble nm="Soprano 1" snm="S 1"
V:2 treble nm="Soprano 2" snm="S 2"
V:3 treble-8 nm="Tenor" snm="T"
V:1
 A8 | B6 d2 | ^c4 z2 e2 | f2 e2 d2 c2 | d2 e2 z2 e2- | e2 f4 e2 | d2 c2 d3 c |"^b" B4 A4 | %8
w: Un|doux nen-|ny, a-|vec un doux soun-|ri- re, a-|* vec un|doux soub- ri- *|* re,|
 z2 e2 f4- | f2 e2 d2 d2- | d2 g4 f2 | e2 d4 ^c2 | d4 z2 d2 |"^-natural" cA B2 Addc | %14
w: a- vec|_ un doux, a-|* vec un|doux soub- ri-|re, est|tant ho- nes- te, il le faut|
 dd f3 e/d/ e2 | f4 z2 f2 | ec d2 cAde | f2 fedc d2 | c2 BA B4 | A4 z2 A2 | B2 c2 d2 e2 | %21
w: vous ap- pren- * * *|dre, est|tant ho- nes- te, il le vous|faut ap- * * * *|pren- * * *|dre, quand|est d'ou- y si|
 f3 e dc d2 | c4 G4 | A2 B2 c3 B/A/ | G4 z2 c2 | f2 e2 d2 d2 | e3 d ef g2 | c2 c2 f3 e | %28
w: ve- niez à le di-|re, d'a-|voir trop dit, _ _|_ ie|vous vou- drois re-|pren- * * * *|dre, ie vous vou-|
 d2 f2 ed d2- |"^#" d2 c2 d2 A2- | A2 A2 A2 B2- | B2 B3 B c2- | c2 d2 e2 f2- | feed/c/ d4 | %34
w: drois re- pren- * *|* * dre, non|_ que ie suis|_ en- vi- eux|_ d'en- tre pren-||
 e4 c4- | c2 c2 d4 | c2 A4 A2 | _B8 | A2 A2 c2 d2 | e2 d3 c/B/ c2 | d2 d2 c2 AB | cd e3 d f2- | %42
w: dre, d'a-|* voir le|fruit, d'a- voir|le|fruit, dont le de-|sir me _ _ _|point, mais ie vou- *||
 f2 e2 f3 f | fedd ^c2 df | fedd c2 d2 | z2 B2 B2 B2 | c2 c4 g2- | gfed c2 c2- | cBAG F2 f2- | %49
w: * * drois qu'en|me le lais- sant pren- dre, qu'en|me le lais- sant pren- dre,|vous me di-|riez non, vous|_ ne l'au- rez point, vous|_ ne l'au- rez point, vous|
 fedd c4 | z2 d3 c BA | G2 c3 BAG | F2 f2 e3 d | c2 B2 A2 f2- | f2 d2 d2 c2 | d8 |] %56
w: _ ne l'au- rez point,|vous _ _ _|_ vous, _ _ _|_ non, vous ne|l'au- rez point, vous|_ ne l'au- rez|point.|
V:2
 ^F8 | G6 D2 | E4 z4 | z2 E2 F2 E2 | D2 ^C2 D2 EA |"^b" B2 A2 G2 G2 | A4 D2 F2- | F2 E2 F2 A2- | %8
w: Un|doux nen-|ny,|a- vec un|doux soub- ri- re, a-|vec un doux soub-|ri- re, soub-|* ri- re, un|
"^b" A2 c2 B2 A2- | A2 A2 z2 A2 | _B6 A2 | G2 F2 E4 | D2 F2 GA D2 | E2 z G FD E2 | D2 A3 A G2 | %15
w: _ doux soub- ri-|* re, a-|vec un|doux soub- ri-|re, est tant ho- nes-|te est tant ho- nes-|te, il le vous|
 A3 A B c2 B | c2 z _B AF G2 | F3 F GAAG | A4 E4 | z2 F2 E2 ^F2 | G6 G2 | A3 G FE D2 | E4 E4 | %23
w: faut ap- pren- * *|dre, et tant ho- ne-|ste il le vous faut ap-|pren- dre,|quand est d'ou-|y si|ve- niez à le di-|re, d'a-|
 F2 G2 G2 G2 | c3 B A2 G2 | AB c4 B2 | c2 G2 c3 B | A2 G2 A3 G | FEDD GFED | E4 D4 | F4 F2 F2 | %31
w: voir trop dit, ie|vous vou- drois re-|pren- * * *|dre, ie vous vou-|drois re- pren- *||* dre,|non que ie|
 G4 G3 G | A4 B2 c2 | BG c4 B2 | c4 G4 | A4 _B4 | A4 F4- | F2 F2 G4 | E2 C2 E2 G2 | G4 E4 | %40
w: suis en- vi-|eux d'en- tre-|pren- * * *|dre, d'a-|voir le|fruit, d'a-|* voir le|fruit, dont le de-|sir me|
 D2 D2 E2 F2 | G2 c2 G2 A2 | G4 z2 D2 | DEFG E2 DA | AG^FG E2 F2 | z2 G2 G2 G2 | A2 A4 GF | %47
w: point, mais ie vou-||drois qu'en|me le lais- sant pren- dre, qu'en|me le lais- sant pren- dre,|vous me di-|riez non, vous ne|
 ED C2 c3 B | AG F2 A2 D2- | DEFG A2 A2- | AGFE D2 G2- | GFED C2 FG | AB c2 C3 D | EFG D2 EFG | %54
w: l'au- rez point, vous ne|l'au- rez point, non, vous|_ ne l'au- rez point, vous|_ ne l'au- rez point, vous|_ ne l'au- rez point, vous ne|l'au- rez point, vous ne|l'au- rez point, vous ne l'au- rez|
 AF G2 E2 E2 | D8 |] %56
w: point, vous ne l'au- rez|point|
V:3
 d8 | G6 _B2 | A2 A2 f2 e2 | d2 c2 d2 A2 | z2 A2 _B2 A2 | G2 F2 c4 | F2 A2 _B3 A | G4 F2 F2 | %8
w: Un|doux nen-|ny a- vec un|doux soub- ri- re,|a- vec un|doux soub- ri-|re, soub- ri _|_ re, a-|
 f2 e2 d4 | ^c4 d4 | G2 G2 G2 A2 | c2 d2 A4 | d2 d2 cA B2 | A2 G2 d2 A2 | _B2 F2 c4 | F2 f2 ec d2 | %16
w: vec un doux|soub- ri-|re, a- vec un|doux soub- ri-|re, est tant ho- ne-|ste, il le vous|faur ap- pren-|dre, il le vous faut|
 c2 G2 AdBc | d3 c BA B2 | A2 a4 g2 | a2 d2 ^c2 d2 | G2 c2 B2 c2 |"^b" Fffc dA B2 | A4 c4 | %23
w: ap- pren- dre, il le vous|faut ap- pren- * *|dre, ap- pren-|dre, quand est d'ou-|y, quand est d'ou-|y si ve- niez à le di-|re, d'a-|
 A2 G2 c4- | c2 c2 f2 e2 | d2 c2 g4 | c8- | c4 F4 | _B3 A G2 B2 | A4 D4 | d4 d2 d2 | e4 e3 e | %32
w: voir trop dit,|_ ie vous vou-|drois re- pren-|dre,|_ ie|vous vou- drois re-|pren- dre,|non que ie|suis en- vi-|
 f4 g2 a2 | g8 | c6 c2 | f4 _B4 | F6 F2 | _B4 G4 | A2 A2 A2 G2 | c2 G2 A4 |"^#" z4 z2 d2 | %41
w: eux d'en- tre-|pren-|dre, d'a-|voir le|fruit, d'a-|voir le|druit, dont le de-|sir me point,|mais|
 c2 A2 c4- | c4 z2 f2 | fcdG A2 dd | AcdG A2 d2 | z2 G2 G2 G2 | F4 c4 | c3 B AG F2 | f3 e dc _B2- | %49
w: ie vou- drois,|_ qu'en|me le lais- sant pren- dre, qu'n|me le lais- sant pren- dre,|vous me di-|riez non,|vous ne l'au- rez point,|vous ne l'au- rez point,|
 B2 _B2 A4 | d3 c BA G2 | c3 B AG F2 | F3 G AB c2- | c2 G2 d4- | d2 G2 A2 A2 | d8 |] %56
w: _ non, non,|vous ne l'au- rez point,|vous ne l'au- rez point,|vous ne l'au- rez point,|_ non, vous|_ ne l'au- rez|point.|

